X:1953
T:Fife hunt
O:england
M:2/4
L:1/8
K:D
g | fd d2 | BG G2 | Ae ed | e2 eg |\
fd d2 | BG G2 | Ad dc | d2 d:|
|:g | fd ad | bd ad | Ae ed | e2 eg |\
fd ad | bd ad | Ad dc | d2 d:|


